X:1
T:Title
%%score { ( 1 3 ) | ( 2 4 ) }
L:1/8
M:4/4
K:G
V:1 treble nm="Grand Piano"
V:3 treble 
V:2 bass 
V:4 bass 
V:1
 z4 z2[Q:1/4=100] D2 | G2 G>G B2 [DG]>[DF] | [CE]4 [B,D]2 [DG]>A | B2 B2 A2 [^CB]2 | A6 B>c | %5
 d2 d2 G2 A>B | [Ec]2 [Ec]2 E2 F>E | D2 G2 G2 F2 |[M:3/4] [B,G]6 |[M:1/4] B2 | %10
[M:4/4] [Ec]>[Ec] [Ec]>[Ec] [Ec]2 [EG]>A | B2 B2 A2 A2 | [Ec]>[Ec] [Ec]>[Ec] [Fc]2 [A,DF]2 | %13
 [G,DG]2 [DA]2 [DB]2 B2 | d>d d>d B2 D->[DF] | E2 [Ec]2 B2 AG | [Fd]3 [B,G] [DGB]2 [CFA]2 | %17
[M:3/4] [B,DG]6 |] %18
V:2
 z4 z2 [G,B,]2 | [G,B,D]2 [G,B,D]>[G,B,D] [G,D]2 [B,,G,]>[B,,G,] | %2
 [C,G,]4 [G,,G,]2 [B,,G,]>[D,F,D] | [G,D]2 [E,G,E]2 [A,^C]2 [A,,G,]2 | [D,F,D]6 [G,D]>[G,A,D] | %5
 [G,B,D]2 [G,B,D]2 [G,B,D]2 [F,A,D]>[G,D] | [C,G,]2 [C,G,]2 [C,G,C]2 [C,G,C]>[C,G,C] | %7
 [D,G,B,]2 [D,B,D]2 [D,A,C]2 [D,A,C]2 |[M:3/4] [G,,G,]6 |[M:1/4] G3/2 z/ | %10
[M:4/4] [C,G,]>[C,G,] [C,G,]>[C,G,] [C,G,]2 z z/ ^D/ | [G,D]2 [G,D]2 [D,F,D]2 [D,F,D]2 | %12
 [A,,A,]>[A,,A,] [A,,A,]>[A,,A,] [D,A,]2 D,>C, | B,,2 [A,,F,]2 [G,,G,]2[K:treble] [G,G]2 | %14
 [G,B,G]>[G,B,G] [G,B,G]>[G,B,G][K:bass] [G,D]2 [B,,G,]2 | [C,G,C]2 [C,G,]2 [G,D]2 [F,CD][G,B,D] | %16
 [D,A,]3 D, D,2 D,2 |[M:3/4] G,,6 |] %18
V:3
 x8 | x8 | x8 | x8 | x8 | x8 | x8 | x8 |[M:3/4] x6 |[M:1/4] z z/ =F/ |[M:4/4] x8 | x8 | x8 | x8 | %14
 z4 z2 G2 | x8 | x8 |[M:3/4] x6 |] %18
V:4
 x8 | x8 | x8 | x8 | x8 | x8 | x8 | x8 |[M:3/4] x6 |[M:1/4] G,2 |[M:4/4] z4 z2 [C,G,]2 | x8 | x8 | %13
 x6[K:treble] x2 | x4[K:bass] x4 | x8 | x8 |[M:3/4] x6 |] %18

